X: 8
T: Missa Malheur me bat / Sanctus
N: Derived from Agr1004d-Missa_Malheur_me_bat-Sanctus.krn
C: Alexander Agricola
%%abc-version 2.0
%%abcx-abcm2ps-target-version 5.9.1 (29 Sep 2008)
%%abc-creator hum2abc beta
%%abcx-conversion-date 2019/02/16 20:17:15
%%abc-edited-by Jesse Rodin
%%abc-edited-by Jesse Rodin; Megan K. Eagen 2013/04/23
%%abcx-initial-encoding-date 2013/04/23/
%%humdrum-veritas 1585532421
%%humdrum-veritas-data 1129735923
%%linebreak <none>
%%barnumbers 0
L: 1/4
M: 3/1
Q: 1/2=120
%%staves [1 2 3 4]
V: 1 clef=treble
V: 2 clef=treble-8
V: 3 clef=treble-8
V: 4 clef=bass
K: C
[V:1] E6C2C4 | 
[V:2] E12- | 
[V:3] z12 | 
[V:4] z12 | 
[V:1] G6E2E4 | 
[V:2] E12 | 
[V:3] z12 | 
[V:4] E,6C,2C,4 | 
[V:1] B6G2G4 | 
[V:2] E4B8 | 
[V:3] z12 | 
[V:4] G,6E,2E,4 | 
[V:1] G6A4GF | 
[V:2] c12 | 
[V:3] z12 | 
[V:4] C,6A,,2A,,4 | 
[V:1] G3FEDE4D2 | 
[V:2] B4G4A4 | 
[V:3] z12 | 
[V:4] E,8F,4 | 
[V:1] E2DE2D/C/B,2A,4 | 
[V:2] G4E4F4 | 
[V:3] z12 | 
[V:4] C,2B,,C,2B,,/A,,/G,,2F,,4 | 
[V:1] z12 | 
[V:2] E3FG2A4G2 | 
[V:3] z12 | 
[V:4] C,4_B,,2A,,2B,,4 | 
[V:1] E3FG2A3GG2 | 
[V:2] A2c4A2B4 | 
[V:3] z12 | 
[V:4] A,,4z2F,2G,4 | 
[V:1] zFG2zFG2zFE2 | 
[V:2] A2zGA2zGA2zc | 
[V:3] z12 | 
[V:4] D,2E,2D,2E,2D,2C,2 | 
[V:1] D2F2ED/C/D2z3G | 
[V:2] B2A2c2BAA2G2 | 
[V:3] z12 | 
[V:4] zG,F,E,/D,/C,2zG,F,E,/D,/E,2 | 
[V:1] FE/D/E2z2zAGF/E/F2 | 
[V:2] zdcB/A/B2A2zedc/B/ | 
[V:3] z12 | 
[V:4] D,2zA,G,F,/E,/F,2E,2z2 | 
[V:1] E2G3CC2A,CDE- | 
[V:2] c2B2e3dcB/A/G2 | 
[V:3] z12 | 
[V:4] A,,2G,,2C,4C,2B,,C,- | 
[V:1] ED/C/B,2A,2A4^G2 | 
[V:2] C2G2A4B4 | 
[V:3] z12 | 
[V:4] C,D,E,2F,4E,4 | 
[V:1] A4A3G/F/E4 | 
[V:2] A2c4C3DEF | 
[V:3] E12 | 
[V:4] A,,8C,4 | 
[V:1] D6D2D4 | 
[V:2] G12 | 
[V:3] B12 | 
[V:4] G,,8G,,4 | 
[V:1] E3FG2A2G2E2 | 
[V:2] E2G3E2FEC2G- | 
[V:3] c12 | 
[V:4] C,3D,E,2A,,2C,4 | 
[V:1] D4G6E2 | 
[V:2] GGG2E3FG4 | 
[V:3] B12 | 
[V:4] G,4G,2E,3F,G,2 | 
[V:1] E3D/C/B,2E4D2 | 
[V:2] E8F4 | 
[V:3] G8A4 | 
[V:4] C,4z4z4 | 
[V:1] E4E3D/C/B,4 | 
[V:2] E4G8 | 
[V:3] G4E8 | 
[V:4] C,4C,3B,,/A,,/G,,4 | 
[V:1] A,12 | 
[V:2] c8c4 | 
[V:3] F12 | 
[V:4] F,,8z2F,,2 | 
[V:1] G,2C6D4- | 
[V:2] c3BA3GFED2 | 
[V:3] E6F6 | 
[V:4] G,,2A,,6B,,4- | 
[V:1] D2E6F2EC- | 
[V:2] d2cB/A/Gc3/B/A/G/FDC2 | 
[V:3] G6A6 | 
[V:4] B,,2C,6D,2A,,2 | 
[V:1] CGFA2G2FG2A2 | 
[V:2] G2A3/B/c2d2e2c2 | 
[V:3] E2F2G2A2E2F2 | 
[V:4] z2D,2C,E,D,2C,2F,,2 | 
[V:1] G2F3EE4D2 | 
[V:2] B2A2c2c2BA2A | 
[V:3] G2A4G2F4 | 
[V:4] z2D,2A,,2C,2D,3E,/F,/ | 
[V:1] E12- | 
[V:2] B2G4E2G3A | 
[V:3] E12- | 
[V:4] G,2E,2G,3A,B,4 | 
[V:1] E12 ||  
[V:2] B2c2B8 ||  
[V:3] E12 ||  
[V:4] E,12 ||  
[V:1]  [K:C] [K:clef=treble][M:2/1]E3DECG2- | 
[V:2]  [K:C] [K:clef=treble-8][M:2/1]E8 | 
[V:3]  [K:C] [K:clef=treble-8][M:2/1]z8 | 
[V:4]  [K:C] [K:clef=bass][M:2/1]z8 | 
[V:1] GFGEB4- | 
[V:2] B8 | 
[V:3] z8 | 
[V:4] z8 | 
[V:1] B2AGA4 | 
[V:2] c8 | 
[V:3] z8 | 
[V:4] z8 | 
[V:1] B8 | 
[V:2] B4G4 | 
[V:3] z8 | 
[V:4] z8 | 
[V:1] c8- | 
[V:2] A8 | 
[V:3] z8 | 
[V:4] A,,3G,,A,,F,,C,2- | 
[V:1] c4B4 | 
[V:2] G4E4 | 
[V:3] z8 | 
[V:4] C,B,,C,A,,E,4- | 
[V:1] A8 | 
[V:2] F8 | 
[V:3] z8 | 
[V:4] E,2D,C,D,4 | 
[V:1] G3AB2c2- | 
[V:2] E3FG2A2- | 
[V:3] z8 | 
[V:4] E,3D,C,B,,A,,2- | 
[V:1] cBG2A2B2 | 
[V:2] AGE2F2G2 | 
[V:3] z8 | 
[V:4] A,,B,,C,2A,,2G,,2 | 
[V:1] c2B4A2- | 
[V:2] A2E2F4 | 
[V:3] z8 | 
[V:4] F,,2G,2A,2C2- | 
[V:1] A2GFG4 | 
[V:2] E8 | 
[V:3] z8 | 
[V:4] C2B,A,B,4 | 
[V:1] A3GF2E2- | 
[V:2] z8 | 
[V:3] z8 | 
[V:4] A,G,F,E,D,2C,2 | 
[V:1] E2DCB,4 | 
[V:2] z8 | 
[V:3] z8 | 
[V:4] A,,2A,4^G,2 | 
[V:1] A,8 | 
[V:2] e8- | 
[V:3] z8 | 
[V:4] A,6C2- | 
[V:1] z8 | 
[V:2] e4d4 | 
[V:3] z8 | 
[V:4] C2B,A,B,2G,2 | 
[V:1] z8 | 
[V:2] c6BA | 
[V:3] z8 | 
[V:4] A,4F,4 | 
[V:1] z4G4 | 
[V:2] G8 | 
[V:3] z8 | 
[V:4] E,6D,E, | 
[V:1] A4B4 | 
[V:2] z4G4 | 
[V:3] z8 | 
[V:4] F,4E,4 | 
[V:1] c4B2G2- | 
[V:2] A4B4 | 
[V:3] z8 | 
[V:4] A,,4E,4 | 
[V:1] G2A2B4 | 
[V:2] c4B2G2- | 
[V:3] z8 | 
[V:4] z8 | 
[V:1] E4z2G2- | 
[V:2] G2A2B4 | 
[V:3] z8 | 
[V:4] z8 | 
[V:1] GAB4c2 | 
[V:2] E8- | 
[V:3] z8 | 
[V:4] z8 | 
[V:1] B2c4BA | 
[V:2] E4F4 | 
[V:3] z8 | 
[V:4] z8 | 
[V:1] G3AB2c2- | 
[V:2] E2e3dcB | 
[V:3] z8 | 
[V:4] z8 | 
[V:1] c2B4A2 | 
[V:2] A2G2c4 | 
[V:3] z8 | 
[V:4] z8 | 
[V:1] B2c3Bd2- | 
[V:2] B2e3df2 | 
[V:3] z8 | 
[V:4] z8 | 
[V:1] dcc4B2 | 
[V:2] e2c2d4 | 
[V:3] z8 | 
[V:4] z8 | 
[V:1] c4z4 | 
[V:2] c4B2c2 | 
[V:3] z8 | 
[V:4] z8 | 
[V:1] z2c2B2c2 | 
[V:2] A4G2A2 | 
[V:3] z8 | 
[V:4] z8 | 
[V:1] A3GG4 | 
[V:2] F2G2C2D2- | 
[V:3] z8 | 
[V:4] C2B,2C2A,2- | 
[V:1] F2G2E3D | 
[V:2] D2E2z4 | 
[V:3] z8 | 
[V:4] A,2G,4F,2 | 
[V:1] D4C2D2 | 
[V:2] z8 | 
[V:3] z8 | 
[V:4] G,2E,4D,2- | 
[V:1] B,3A,A,4 | 
[V:2] z8 | 
[V:3] z8 | 
[V:4] D,2C,2D,2B,,2- | 
[V:1] G,2A,2C2B,2 | 
[V:2] z8 | 
[V:3] z8 | 
[V:4] B,,2A,,4G,,2 | 
[V:1] A,4D2C2- | 
[V:2] z8 | 
[V:3] z8 | 
[V:4] A,,2C,2B,,2A,,2 | 
[V:1] CDE2F2E2- | 
[V:2] z8 | 
[V:3] z8 | 
[V:4] E,2C,2D,2E,2 | 
[V:1] E2A2G2A2 | 
[V:2] z2c4f2 | 
[V:3] z8 | 
[V:4] G,2F,2E,2D,2- | 
[V:1] B2c4BA | 
[V:2] d2e2c2d2 | 
[V:3] z8 | 
[V:4] D,2C,2F,4 | 
[V:1] G8 | 
[V:2] e6dc | 
[V:3] z8 | 
[V:4] E,8- | 
[V:1] z4G4- | 
[V:2] dcBAGABc | 
[V:3] z8 | 
[V:4] E,8- | 
[V:1] G4G4 | 
[V:2] B2E2e3d/c/ | 
[V:3] z8 | 
[V:4] E,8- | 
[V:1] G8 | 
[V:2] BAc2B4 | 
[V:3] z8 | 
[V:4] E,8 | 
[V:1] A8 | 
[V:2] z2A3Bcd | 
[V:3] z8 | 
[V:4] F,8 | 
[V:1] G6FE | 
[V:2] e4z4 | 
[V:3] z8 | 
[V:4] z2E,3F,G,A, | 
[V:1] D8 | 
[V:2] z2G3ABc | 
[V:3] z8 | 
[V:4] B,4z4 | 
[V:1] F6ED | 
[V:2] d4z4 | 
[V:3] z8 | 
[V:4] z2D,3E,F,G, | 
[V:1] C8 | 
[V:2] z2F3GAB | 
[V:3] z8 | 
[V:4] A,4z2C,2- | 
[V:1] E4D4 | 
[V:2] c2c4B2 | 
[V:3] z8 | 
[V:4] C,D,E,F,G,4 | 
[V:1] C4z2F2- | 
[V:2] c4A4 | 
[V:3] z8 | 
[V:4] C,4D,4- | 
[V:1] FGABc2d2- | 
[V:2] d4c2B2 | 
[V:3] z8 | 
[V:4] D,2C,B,,A,,2G,,2 | 
[V:1] dcc4B2 | 
[V:2] c4d4 | 
[V:3] z8 | 
[V:4] A,,4G,,4 | 
[V:1] c4z4 | 
[V:2] c3BA2G2- | 
[V:3] z8 | 
[V:4] C,4D,2E,2- | 
[V:1] C4D2E2- | 
[V:2] G2FED2C2 | 
[V:3] z8 | 
[V:4] E,2D,C,B,,2C,2- | 
[V:1] E2DCB,2C2- | 
[V:2] c4d2e2- | 
[V:3] z8 | 
[V:4] C,2B,,A,,G,,2C,2- | 
[V:1] CDEFG2A2- | 
[V:2] e2dcB2c2- | 
[V:3] z8 | 
[V:4] C,2B,,A,,G,,2F,,2- | 
[V:1] A2GFE2F2- | 
[V:2] c2BAG2A2- | 
[V:3] z8 | 
[V:4] F,,G,,A,,B,,C,2F,,2 | 
[V:1] FEE4D2 | 
[V:2] AGE2F4 | 
[V:3] z8 | 
[V:4] C,4D,4 | 
[V:1] C8 | 
[V:2] E4A4 | 
[V:3] z8 | 
[V:4] A,,8 | 
[V:1] C3DEFE2- | 
[V:2] A3Bc4- | 
[V:3] z8 | 
[V:4] A,,4z2A,,2- | 
[V:1] E2DCB,2A,2- | 
[V:2] c2BAG2A2 | 
[V:3] z8 | 
[V:4] A,,B,,C,D,E,2F,2- | 
[V:1] A,2A4G2 | 
[V:2] c2d2B4 | 
[V:3] z8 | 
[V:4] F,2D,2E,4 | 
[V:1] ABcdc2B2- | 
[V:2] f2efed/c/d2 | 
[V:3] z8 | 
[V:4] D,2C,2B,,A,,G,,2 | 
[V:1] BAA4^G2 | 
[V:2] cAc2B4 | 
[V:3] z8 | 
[V:4] A,,4E,4 | 
[V:1] A8 ||  
[V:2] A8 ||  
[V:3] z8 ||  
[V:4] A,,8 ||  
[V:1]  [K:C] [K:clef=treble][M:2/1]G8- | 
[V:2]  [K:C] [K:clef=treble-8][M:2/1]c8- | 
[V:3]  [K:C] [K:clef=treble-8][M:2/1]e8- | 
[V:4]  [K:C] [K:clef=bass][M:2/1]C,8- | 
[V:1] G8 | 
[V:2] c6d2 | 
[V:3] e8 | 
[V:4] C,8 | 
[V:1] G8- | 
[V:2] e8- | 
[V:3] c8- | 
[V:4] C,8- | 
[V:1] G6A2 | 
[V:2] e6f2 | 
[V:3] c8 | 
[V:4] C,6B,,A,, | 
[V:1] B8- | 
[V:2] g4z2G2- | 
[V:3] d8- | 
[V:4] G,,8- | 
[V:1] B8 | 
[V:2] G2FED2G2- | 
[V:3] d8 | 
[V:4] G,,8 | 
[V:1] G8 | 
[V:2] G2E2E4- | 
[V:3] e8- | 
[V:4] C,8 | 
[V:1] c8- | 
[V:2] E2C2C4- | 
[V:3] e8 | 
[V:4] A,,8 | 
[V:1] c8 | 
[V:2] C4F4 | 
[V:3] z4A4 | 
[V:4] F,,8 | 
[V:1] B6AG | 
[V:2] D2G4FE | 
[V:3] B4c4- | 
[V:4] G,,4A,,4- | 
[V:1] A4B4- | 
[V:2] F4G4 | 
[V:3] c4B4 | 
[V:4] A,,4G,,4- | 
[V:1] B4c4- | 
[V:2] d4e4- | 
[V:3] G8 | 
[V:4] G,,4C,4- | 
[V:1] c4B4 | 
[V:2] e2dcd2B2 | 
[V:3] A4B4- | 
[V:4] C,2B,,A,,G,,4 | 
[V:1] G3AB4 | 
[V:2] d3cBAG2- | 
[V:3] B4E4- | 
[V:4] z2G,3F,E,D, | 
[V:1] E4G4 | 
[V:2] GFEDE2D2 | 
[V:3] E4e4- | 
[V:4] C,6B,,2 | 
[V:1] A2c4B2 | 
[V:2] C4G4 | 
[V:3] e2dcd4 | 
[V:4] A,,4G,,4 | 
[V:1] c2A4G2- | 
[V:2] A2F2G2d2- | 
[V:3] c4B4 | 
[V:4] z4G,,4 | 
[V:1] G2FEF4 | 
[V:2] d2cBA2d2 | 
[V:3] A8 | 
[V:4] D,8 | 
[V:1] G6FE | 
[V:2] B4c4 | 
[V:3] G6A2 | 
[V:4] E,6F,2 | 
[V:1] D4C4 | 
[V:2] B2G4c2- | 
[V:3] B4c4 | 
[V:4] G,4C,4 | 
[V:1] z4c4- | 
[V:2] c2B2c4 | 
[V:3] B4e4- | 
[V:4] G,4C,4- | 
[V:1] c2B2B4- | 
[V:2] e4d4 | 
[V:3] e2d2B4 | 
[V:4] C,4G,4 | 
[V:1] B4A4 | 
[V:2] e3dcBA2 | 
[V:3] c8 | 
[V:4] E,4F,4 | 
[V:1] B4c4- | 
[V:2] G2E3FGA | 
[V:3] B4e4- | 
[V:4] G,4C,4- | 
[V:1] c2B2d4- | 
[V:2] G2FED4 | 
[V:3] e2d2f4 | 
[V:4] C,4B,,4 | 
[V:1] d2c2c4- | 
[V:2] C8 | 
[V:3] e4c4 | 
[V:4] C,4A,,4 | 
[V:1] c4B4 | 
[V:2] G6F2 | 
[V:3] d8 | 
[V:4] G,,8 | 
[V:1] c8 | 
[V:2] G4E4 | 
[V:3] z4c4- | 
[V:4] C,8 | 
[V:1] z8 | 
[V:2] D8 | 
[V:3] c4B4 | 
[V:4] z8 | 
[V:1] z4c4- | 
[V:2] C8 | 
[V:3] c4A4- | 
[V:4] z8 | 
[V:1] c4B4 | 
[V:2] c4d4 | 
[V:3] A4G4 | 
[V:4] z8 | 
[V:1] c4A4- | 
[V:2] c4e4- | 
[V:3] A4c4 | 
[V:4] A,,8 | 
[V:1] A4G4 | 
[V:2] e4e4 | 
[V:3] B8 | 
[V:4] E,8 | 
[V:1] A4c4 | 
[V:2] c6BA | 
[V:3] A8 | 
[V:4] F,4C,2F,2 | 
[V:1] B2c4BA | 
[V:2] G2F2A3B | 
[V:3] z4e4- | 
[V:4] G,2A,4G,F, | 
[V:1] G2E2F2ED | 
[V:2] c2c3BBA | 
[V:3] e4d4 | 
[V:4] E,4z4 | 
[V:1] E4G3A | 
[V:2] c4C4 | 
[V:3] c4e4- | 
[V:4] z2C4B,A, | 
[V:1] B2c4BA | 
[V:2] z4A4 | 
[V:3] e4d4 | 
[V:4] G,2A,2F,4 | 
[V:1] G8- | 
[V:2] B4c2B2 | 
[V:3] e6dc | 
[V:4] E,8- | 
[V:1] G8- | 
[V:2] G3AB2E2 | 
[V:3] B2c2B2G2- | 
[V:4] E,8- | 
[V:1] G8- | 
[V:2] z2e4dc | 
[V:3] GAB2E2e2- | 
[V:4] E,8- | 
[V:1] G8 | 
[V:2] B4e3d | 
[V:3] e2dcB4 | 
[V:4] E,8 | 
[V:1] A8 | 
[V:2] cBc4BA | 
[V:3] A4c4 | 
[V:4] A,6G,F, | 
[V:1] z8 | 
[V:2] G2A2G2E2- | 
[V:3] z8 | 
[V:4] E,2F,2E,2C,2- | 
[V:1] z8 | 
[V:2] EFG2A2c2- | 
[V:3] z8 | 
[V:4] C,D,E,2A,,2A,2- | 
[V:1] z4G4 | 
[V:2] cBd4^c2 | 
[V:3] z8 | 
[V:4] A,2G,F,E,4 | 
[V:1] F6ED | 
[V:2] d4A4- | 
[V:3] z4d4 | 
[V:4] D,6C,B,, | 
[V:1] C8 | 
[V:2] A4A4 | 
[V:3] e6dc | 
[V:4] A,,8 | 
[V:1] G6F2 | 
[V:2] G2E4C2- | 
[V:3] B4c4- | 
[V:4] z8 | 
[V:1] E4D4 | 
[V:2] CDEFG4 | 
[V:3] c2BAB4 | 
[V:4] z8 | 
[V:1] C6D2 | 
[V:2] A4c4- | 
[V:3] E8 | 
[V:4] A,,6B,,2 | 
[V:1] E2F2G4- | 
[V:2] c2BAG3F | 
[V:3] E8 | 
[V:4] C,6D,2 | 
[V:1] G2F2E4- | 
[V:2] E2C2c4 | 
[V:3] E8 | 
[V:4] E,4C,4 | 
[V:1] E2DCD4 | 
[V:2] A6B2 | 
[V:3] F8 | 
[V:4] D,8 | 
[V:1] E8- | 
[V:2] c8 | 
[V:3] E8- | 
[V:4] A,,8 | 
[V:1] E8- | 
[V:2] B4c4- | 
[V:3] E8- | 
[V:4] G,,4A,,4- | 
[V:1] E8- | 
[V:2] c4B2A2 | 
[V:3] E8- | 
[V:4] A,,4G,,2F,,2 | 
[V:1] E8- | 
[V:2] G6A2 | 
[V:3] E8- | 
[V:4] E,,8- | 
[V:1] E8 ||  
[V:2] B8 ||  
[V:3] E8 ||  
[V:4] E,,8 ||  
[V:1]  [K:C] [K:clef=treble][M:2/1]z8 | 
[V:2]  [K:C] [K:clef=treble-8][M:2/1]E8 | 
[V:3]  [K:C] [K:clef=treble-8][M:2/1]z8 | 
[V:4]  [K:C] [K:clef=bass][M:2/1]z8 | 
[V:1] z8 | 
[V:2] E6F2 | 
[V:3] z8 | 
[V:4] z8 | 
[V:1] E8 | 
[V:2] G4A4- | 
[V:3] z8 | 
[V:4] z8 | 
[V:1] E6F2 | 
[V:2] A2B2c4 | 
[V:3] z8 | 
[V:4] z8 | 
[V:1] G4A4- | 
[V:2] B4A4 | 
[V:3] z8 | 
[V:4] z8 | 
[V:1] A4B4 | 
[V:2] F4G4 | 
[V:3] z8 | 
[V:4] z8 | 
[V:1] c8 | 
[V:2] E2C3DEF | 
[V:3] z8 | 
[V:4] z8 | 
[V:1] B4d4- | 
[V:2] G8 | 
[V:3] z8 | 
[V:4] z8 | 
[V:1] d2c4BA | 
[V:2] A8 | 
[V:3] z8 | 
[V:4] z8 | 
[V:1] G3ABcB2- | 
[V:2] B4G4- | 
[V:3] z8 | 
[V:4] z8 | 
[V:1] B2E3FGA | 
[V:2] G4c4 | 
[V:3] z8 | 
[V:4] z8 | 
[V:1] G4C3D | 
[V:2] B2e3dcB | 
[V:3] z8 | 
[V:4] z8 | 
[V:1] EFE4A,2- | 
[V:2] c2BAG2c2- | 
[V:3] z8 | 
[V:4] z8 | 
[V:1] A,B,CDC2B,A, | 
[V:2] cBAGA2GF | 
[V:3] z8 | 
[V:4] z8 | 
[V:1] C2B,4A,2- | 
[V:2] E2G2A2c2 | 
[V:3] z8 | 
[V:4] z8 | 
[V:1] A,2G2ABcd | 
[V:2] B4A3G | 
[V:3] z8 | 
[V:4] z8 | 
[V:1] cBAGc2B2- | 
[V:2] ABcdefd2- | 
[V:3] z8 | 
[V:4] z8 | 
[V:1] BAA4^G2 | 
[V:2] dec2B4 | 
[V:3] z8 | 
[V:4] z8 | 
[V:1] A8- | 
[V:2] A8 | 
[V:3] z8 | 
[V:4] z8 | 
[V:1] A8 | 
[V:2] z8 | 
[V:3] z8 | 
[V:4] z8 | 
[V:1] z8 | 
[V:2] E8 | 
[V:3] z8 | 
[V:4] z8 | 
[V:1] z8 | 
[V:2] B8 | 
[V:3] z8 | 
[V:4] z8 | 
[V:1] E8 | 
[V:2] c8 | 
[V:3] z8 | 
[V:4] z8 | 
[V:1] B8 | 
[V:2] B3cd2e2- | 
[V:3] z8 | 
[V:4] z8 | 
[V:1] c8 | 
[V:2] edcBAGA2 | 
[V:3] z8 | 
[V:4] z8 | 
[V:1] B4G4 | 
[V:2] z2GFEDE2 | 
[V:3] z8 | 
[V:4] z8 | 
[V:1] A8 | 
[V:2] z2FEDCD2 | 
[V:3] z8 | 
[V:4] z8 | 
[V:1] G3AB2E2- | 
[V:2] E3FG2A2 | 
[V:3] z8 | 
[V:4] z8 | 
[V:1] EFG2A2E2 | 
[V:2] z2E2F2G2 | 
[V:3] z8 | 
[V:4] z8 | 
[V:1] F2E4D2 | 
[V:2] A3Bc2d2- | 
[V:3] z8 | 
[V:4] z8 | 
[V:1] E4z4 | 
[V:2] d2^c2d4 | 
[V:3] z8 | 
[V:4] z8 | 
[V:1] B4G4 | 
[V:2] z2e4c2- | 
[V:3] z8 | 
[V:4] z8 | 
[V:1] A4B4 | 
[V:2] c2d4e2- | 
[V:3] z8 | 
[V:4] z8 | 
[V:1] c8- | 
[V:2] e2f2e2c2- | 
[V:3] z8 | 
[V:4] z8 | 
[V:1] c8 | 
[V:2] cde2A4 | 
[V:3] z8 | 
[V:4] z8 | 
[V:1] B4G4- | 
[V:2] z4B4 | 
[V:3] z8 | 
[V:4] z8 | 
[V:1] G2A2B4 | 
[V:2] c4B2G2- | 
[V:3] z8 | 
[V:4] z8 | 
[V:1] E4z2B,2- | 
[V:2] G2A2B3c | 
[V:3] z8 | 
[V:4] z8 | 
[V:1] B,2C2B,2E2- | 
[V:2] d2e2d2c2- | 
[V:3] z8 | 
[V:4] z8 | 
[V:1] E2DCDCB,A, | 
[V:2] c2BABAGF | 
[V:3] z8 | 
[V:4] z8 | 
[V:1] G,3A,B,2C2- | 
[V:2] E2B2G2A2 | 
[V:3] z8 | 
[V:4] z8 | 
[V:1] C2B,4A,2 | 
[V:2] B4c4 | 
[V:3] z8 | 
[V:4] z8 | 
[V:1] B,3CD2E2- | 
[V:2] d4G4 | 
[V:3] z8 | 
[V:4] z8 | 
[V:1] E2D2E3F | 
[V:2] F4E4 | 
[V:3] z8 | 
[V:4] z8 | 
[V:1] G2A4G2 | 
[V:2] C4B,4 | 
[V:3] z8 | 
[V:4] z8 | 
[V:1] A3Bc2d2- | 
[V:2] A,2A4B2 | 
[V:3] z8 | 
[V:4] z8 | 
[V:1] d2c4B2 | 
[V:2] c2e2d4 | 
[V:3] z8 | 
[V:4] z8 | 
[V:1] c6BA | 
[V:2] c4z4 | 
[V:3] z8 | 
[V:4] z8 | 
[V:1] G4A4 | 
[V:2] c6BA | 
[V:3] z8 | 
[V:4] z8 | 
[V:1] z2B2c4 | 
[V:2] G4A4 | 
[V:3] z8 | 
[V:4] z8 | 
[V:1] B4A2A2- | 
[V:2] z2B2c4 | 
[V:3] z8 | 
[V:4] z8 | 
[V:1] A2G2A2GF | 
[V:2] B4A2A2- | 
[V:3] z8 | 
[V:4] z8 | 
[V:1] E4F4 | 
[V:2] A2G2A2GF | 
[V:3] z8 | 
[V:4] z8 | 
[V:1] z2G2A4 | 
[V:2] E4F4 | 
[V:3] z8 | 
[V:4] z8 | 
[V:1] G2E2F4 | 
[V:2] z2G2A4 | 
[V:3] z8 | 
[V:4] z8 | 
[V:1] E2E4D2 | 
[V:2] G2E2F4 | 
[V:3] z8 | 
[V:4] z8 | 
[V:1] E4z4 | 
[V:2] E2E4D2 | 
[V:3] z8 | 
[V:4] z8 | 
[V:1] G6FE | 
[V:2] E4z4 | 
[V:3] z8 | 
[V:4] z8 | 
[V:1] D4G4 | 
[V:2] G6FE | 
[V:3] z8 | 
[V:4] z8 | 
[V:1] z2G2A2B2- | 
[V:2] D2E2F2G2 | 
[V:3] z8 | 
[V:4] z8 | 
[V:1] B2c2A4 | 
[V:2] E4F2D2 | 
[V:3] z8 | 
[V:4] z8 | 
[V:1] z2A2B2c2- | 
[V:2] E2F2G2E2 | 
[V:3] z8 | 
[V:4] z8 | 
[V:1] cBd3cBA | 
[V:2] F4D4 | 
[V:3] z8 | 
[V:4] z8 | 
[V:1] G4z2G2 | 
[V:2] E3FG2E2 | 
[V:3] z8 | 
[V:4] z8 | 
[V:1] A2B3AGF | 
[V:2] F2G2E3F | 
[V:3] z8 | 
[V:4] z8 | 
[V:1] E4z2E2 | 
[V:2] GAG4FE | 
[V:3] z8 | 
[V:4] z8 | 
[V:1] F2G3FED | 
[V:2] D2C2E4- | 
[V:3] z8 | 
[V:4] z8 | 
[V:1] C4B,2C2- | 
[V:2] E2F2G2A2- | 
[V:3] z8 | 
[V:4] z8 | 
[V:1] C2B,2A,4 | 
[V:2] A2G4F2 | 
[V:3] z8 | 
[V:4] z8 | 
[V:1] G,4z2G2- | 
[V:2] G4E4 | 
[V:3] z8 | 
[V:4] z8 | 
[V:1] GFE4DC | 
[V:2] C4G4- | 
[V:3] z8 | 
[V:4] z8 | 
[V:1] B,2C3B,B,2 | 
[V:2] G2A2B4 | 
[V:3] z8 | 
[V:4] z8 | 
[V:1] z2B4c2- | 
[V:2] c2B2G2A2 | 
[V:3] z8 | 
[V:4] z8 | 
[V:1] cBB4A2 | 
[V:2] B4c4 | 
[V:3] z8 | 
[V:4] z8 | 
[V:1] B2G4FE | 
[V:2] B4c4 | 
[V:3] z8 | 
[V:4] z8 | 
[V:1] D2E2F4 | 
[V:2] B2e4d2 | 
[V:3] z8 | 
[V:4] z8 | 
[V:1] EDEFGABc | 
[V:2] e2c4BA | 
[V:3] z8 | 
[V:4] z8 | 
[V:1] B2A4^G2 | 
[V:2] G2A2B4 | 
[V:3] z8 | 
[V:4] z8 | 
[V:1] A4z2E2 | 
[V:2] A4A4 | 
[V:3] z8 | 
[V:4] z8 | 
[V:1] F2G2A2zE | 
[V:2] z2E2F2G2 | 
[V:3] z8 | 
[V:4] z8 | 
[V:1] F2G2A2GE | 
[V:2] A2zEF2G2 | 
[V:3] z8 | 
[V:4] z8 | 
[V:1] F2E2D2F2- | 
[V:2] A2c2B2A2- | 
[V:3] z8 | 
[V:4] z8 | 
[V:1] FEE4D2 | 
[V:2] AGE2F4 | 
[V:3] z8 | 
[V:4] z8 | 
[V:1] E8 ||  
[V:2] E8 ||  
[V:3] z8 ||  
[V:4] z8 ||  



